;FLAVOR:Marlin
;TIME:6687
;Filament used: 2.80202m
;Layer height: 0.2
;MINX:88.488
;MINY:95.989
;MINZ:0.2
;MAXX:146.512
;MAXY:139.011
;MAXZ:59
;Generated with Cura_SteamEngine 4.13.1
M82 ;absolute extrusion mode
; BIQU B1 Start G-code
M117 Getting the bed up to temp!
M140 S85      ; Set Heat Bed temperature
M190 S85      ; Wait for Heat Bed temperature
M117 Getting the extruder up to temp!
M104 S240    ; Set Extruder temperature
G28   ; HOME
M117 Auto bed levelling
G29
G92 E0                           ; Reset Extruder
M117 Homing axes
G28                              ; Home all axes
M109 S240    ; Wait for Extruder temperature
G1 Z2.0 F3000                    ; Move Z Axis up little to prevent scratching of Heat Bed
G1 X4.1 Y20 Z0.3 F5000.0         ; Move to start position
M117 Purging
G1 X0.1 Y200.0 Z0.3 F1500.0 E15  ; Draw the first line
G1 X0.4 Y200.0 Z0.3 F5000.0      ; Move to side a little
G1 X0.4 Y20 Z0.3 F1500.0 E30     ; Draw the second line
G92 E0                           ; Reset Extruder
M117 Lets make
G1 Z2.0 F3000                    ; Move Z Axis up little to prevent scratching of Heat Bed
G1 X5 Y20 Z0.3 F5000.0           ; Move over to prevent blob squish
G92 E0
G92 E0
G1 F4200 E-7
;LAYER_COUNT:295
;LAYER:0
M107
G0 F6000 X92.156 Y99.604 Z0.2
;TYPE:SKIRT
G1 F4200 E0
G1 F900 X92.851 Y98.974 E0.0312
G1 X93.801 Y98.266 E0.07061
G1 X93.935 Y98.177 E0.07596
G1 X94.397 Y97.886 E0.09412
G1 X94.671 Y97.723 E0.10472
G1 X95.497 Y97.279 E0.13591
G1 X96.003 Y97.049 E0.1544
G1 X96.18 Y96.974 E0.16079
G1 X97.419 Y96.534 E0.20452
G1 X97.689 Y96.456 E0.21387
G1 X98.6 Y96.234 E0.24506
G1 X99.863 Y96.059 E0.28747
G1 X100.15 Y96.036 E0.29704
G1 X100.858 Y96.002 E0.32062
G1 X101.802 Y95.989 E0.35202
G1 X133.284 Y95.989 E1.39911
G1 X134.061 Y95.999 E1.42496
G1 X135.102 Y96.064 E1.45965
G1 X135.575 Y96.116 E1.47548
G1 X136.502 Y96.258 E1.50667
G1 X137.414 Y96.479 E1.53788
G1 X138.178 Y96.729 E1.56462
G1 X138.452 Y96.83 E1.57433
G1 X139.481 Y97.27 E1.61155
G1 X139.62 Y97.338 E1.6167
G1 X140.58 Y97.869 E1.65319
G1 X140.885 Y98.058 E1.66512
G1 X141.661 Y98.585 E1.69632
G1 X142.388 Y99.177 E1.7275
G1 X143.063 Y99.828 E1.75869
G1 X143.68 Y100.535 E1.7899
G1 X144.393 Y101.536 E1.83078
G1 X144.494 Y101.696 E1.83707
G1 X144.751 Y102.125 E1.85371
G1 X144.915 Y102.413 E1.86473
G1 X145.344 Y103.247 E1.89592
G1 X145.772 Y104.319 E1.93431
G1 X145.881 Y104.64 E1.94559
G1 X146.144 Y105.54 E1.97677
G1 X146.391 Y106.904 E2.02288
G1 X146.427 Y107.213 E2.03323
G1 X146.494 Y108.103 E2.06291
G1 X146.51 Y108.641 E2.08081
G1 X146.512 Y108.959 E2.09139
G1 X146.51 Y125.919 E2.65548
G1 X146.5 Y126.653 E2.6799
G1 X146.446 Y127.606 E2.71165
G1 X146.42 Y127.864 E2.72027
G1 X146.286 Y128.792 E2.75146
G1 X146.15 Y129.417 E2.77273
G1 X146.098 Y129.626 E2.77989
G1 X145.833 Y130.526 E2.8111
G1 X145.615 Y131.108 E2.83177
G1 X145.52 Y131.342 E2.84017
G1 X145.131 Y132.195 E2.87135
G1 X144.873 Y132.672 E2.88939
G1 X144.682 Y132.998 E2.90195
G1 X144.51 Y133.282 E2.913
G1 X143.99 Y134.063 E2.9442
G1 X143.406 Y134.797 E2.9754
G1 X142.762 Y135.478 E3.00658
G1 X142.061 Y136.102 E3.03779
G1 X141.212 Y136.73 E3.07291
G1 X140.98 Y136.885 E3.08219
G1 X139.885 Y137.529 E3.12445
G1 X139.643 Y137.653 E3.13349
G1 X138.791 Y138.044 E3.16467
G1 X137.946 Y138.35 E3.19456
G1 X137.709 Y138.425 E3.20283
G1 X137.301 Y138.547 E3.21699
G1 X136.39 Y138.767 E3.24816
G1 X135.137 Y138.941 E3.29024
G1 X134.85 Y138.964 E3.29981
G1 X134.142 Y138.998 E3.32339
G1 X133.198 Y139.011 E3.35479
G1 X101.555 Y139.01 E4.40724
G1 X100.939 Y139.001 E4.42773
G1 X99.914 Y138.938 E4.46189
G1 X99.416 Y138.884 E4.47855
G1 X98.489 Y138.743 E4.50973
G1 X97.577 Y138.524 E4.54093
G1 X96.568 Y138.182 E4.57636
G1 X96.294 Y138.074 E4.58616
G1 X95.437 Y137.693 E4.61735
G1 X94.703 Y137.293 E4.64516
G1 X94.419 Y137.124 E4.65615
G1 X94.086 Y136.919 E4.66915
G1 X93.313 Y136.388 E4.70035
G1 X92.587 Y135.794 E4.73154
G1 X91.915 Y135.14 E4.76273
G1 X91.301 Y134.431 E4.79393
G1 X90.512 Y133.298 E4.83985
G1 X90.228 Y132.83 E4.85806
G1 X89.776 Y132.008 E4.88926
G1 X89.396 Y131.151 E4.92044
G1 X89.196 Y130.602 E4.93987
G1 X89.118 Y130.368 E4.94808
G1 X88.953 Y129.825 E4.96695
G1 X88.935 Y129.76 E4.96919
G1 X88.723 Y128.846 E5.0004
G1 X88.614 Y128.129 E5.02452
G1 X88.576 Y127.811 E5.03517
G1 X88.504 Y126.867 E5.06666
G1 X88.492 Y126.406 E5.082
G1 X88.488 Y126 E5.09551
G1 X88.49 Y108.998 E5.66099
G1 X88.5 Y108.328 E5.68328
G1 X88.547 Y107.467 E5.71196
G1 X88.569 Y107.232 E5.71981
G1 X88.696 Y106.302 E5.75103
G1 X88.964 Y105.166 E5.78985
G1 X89.077 Y104.78 E5.80323
G1 X89.379 Y103.892 E5.83442
G1 X89.897 Y102.754 E5.87601
G1 X89.969 Y102.617 E5.88116
G1 X90.246 Y102.12 E5.90008
G1 X90.427 Y101.815 E5.91188
G1 X90.94 Y101.03 E5.94307
G1 X91.518 Y100.291 E5.97427
G1 X91.612 Y100.19 E5.97886
G0 F810 X92.156 Y99.604
G0 F6000 X92.473 Y99.853
G1 F900 X93.159 Y99.238 E6.00951
G1 X94.022 Y98.599 E6.04522
G1 X94.156 Y98.51 E6.05057
G1 X94.602 Y98.23 E6.06809
G1 X94.876 Y98.067 E6.07869
G1 X95.687 Y97.631 E6.10932
G1 X96.159 Y97.417 E6.12655
G1 X96.336 Y97.342 E6.13295
G1 X97.53 Y96.918 E6.17509
G1 X97.8 Y96.84 E6.18444
G1 X98.695 Y96.624 E6.21506
G1 X99.895 Y96.458 E6.25535
G1 X100.182 Y96.435 E6.26493
G1 X100.864 Y96.402 E6.28764
G1 X101.802 Y96.389 E6.31884
G1 X133.284 Y96.389 E7.36593
G1 X134.055 Y96.399 E7.39158
G1 X135.058 Y96.461 E7.425
G1 X135.531 Y96.513 E7.44083
G1 X136.441 Y96.654 E7.47146
G1 X137.336 Y96.872 E7.5021
G1 X138.039 Y97.104 E7.52672
G1 X138.313 Y97.205 E7.53643
G1 X139.305 Y97.629 E7.57231
G1 X139.444 Y97.697 E7.57746
G1 X140.369 Y98.209 E7.61262
G1 X140.674 Y98.398 E7.62456
G1 X141.435 Y98.916 E7.65518
G1 X142.148 Y99.499 E7.68581
G1 X142.808 Y100.141 E7.71643
G1 X143.409 Y100.838 E7.74704
G1 X144.055 Y101.75 E7.78421
G1 X144.156 Y101.91 E7.79051
G1 X144.403 Y102.323 E7.80651
G1 X144.567 Y102.611 E7.81754
G1 X144.988 Y103.43 E7.84816
G1 X145.393 Y104.448 E7.8846
G1 X145.502 Y104.769 E7.89588
G1 X145.76 Y105.653 E7.92651
G1 X145.994 Y106.95 E7.97034
G1 X146.03 Y107.259 E7.98069
G1 X146.095 Y108.116 E8.00928
G1 X146.104 Y108.374 E8.01786
G1 X146.11 Y108.645 E8.02688
G1 X146.112 Y108.959 E8.03732
G1 X146.11 Y125.913 E8.60121
G1 X146.1 Y126.647 E8.62563
G1 X146.048 Y127.566 E8.65624
G1 X146.022 Y127.824 E8.66487
G1 X145.89 Y128.735 E8.69549
G1 X145.761 Y129.32 E8.71541
G1 X145.709 Y129.529 E8.72257
G1 X145.449 Y130.412 E8.75319
G1 X145.244 Y130.957 E8.77256
G1 X145.149 Y131.191 E8.78096
G1 X144.766 Y132.029 E8.8116
G1 X144.525 Y132.473 E8.8284
G1 X144.34 Y132.791 E8.84064
G1 X144.168 Y133.075 E8.85168
G1 X143.657 Y133.841 E8.88231
G1 X143.082 Y134.56 E8.91293
G1 X142.446 Y135.226 E8.94356
G1 X141.756 Y135.835 E8.97417
G1 X140.99 Y136.398 E9.00579
G1 X140.758 Y136.553 E9.01507
G1 X139.703 Y137.173 E9.05577
G1 X139.461 Y137.297 E9.06481
G1 X138.624 Y137.681 E9.09544
G1 X137.825 Y137.969 E9.12369
G1 X137.588 Y138.044 E9.13196
G1 X137.19 Y138.162 E9.14576
G1 X136.295 Y138.378 E9.17639
G1 X135.105 Y138.542 E9.21634
G1 X134.818 Y138.565 E9.22592
G1 X134.136 Y138.598 E9.24863
G1 X133.198 Y138.611 E9.27983
G1 X101.561 Y138.61 E10.33208
G1 X100.945 Y138.601 E10.35257
G1 X99.957 Y138.54 E10.38549
G1 X99.459 Y138.486 E10.40215
G1 X98.549 Y138.347 E10.43277
G1 X97.655 Y138.13 E10.46337
G1 X96.715 Y137.81 E10.49639
G1 X96.441 Y137.702 E10.50619
G1 X95.6 Y137.327 E10.53682
G1 X94.907 Y136.949 E10.56307
G1 X94.426 Y136.66 E10.58174
G1 X94.298 Y136.58 E10.58676
G1 X93.539 Y136.058 E10.61739
G1 X92.829 Y135.473 E10.64799
G1 X92.171 Y134.828 E10.67864
G1 X91.573 Y134.129 E10.70923
G1 X90.854 Y133.09 E10.75126
G1 X90.57 Y132.622 E10.76947
G1 X90.127 Y131.815 E10.80009
G1 X89.756 Y130.973 E10.83069
G1 X89.576 Y130.475 E10.8483
G1 X89.498 Y130.241 E10.8565
G1 X89.338 Y129.718 E10.8747
G1 X89.32 Y129.653 E10.87694
G1 X89.114 Y128.756 E10.90755
G1 X89.011 Y128.082 E10.93023
G1 X88.973 Y127.764 E10.94088
G1 X88.904 Y126.854 E10.97123
G1 X88.892 Y126.402 E10.98627
G1 X88.888 Y126 E10.99964
G1 X88.89 Y109.004 E11.56493
G1 X88.9 Y108.334 E11.58722
G1 X88.945 Y107.504 E11.61487
G1 X88.967 Y107.269 E11.62272
G1 X89.093 Y106.357 E11.65334
G1 X89.348 Y105.279 E11.69018
G1 X89.461 Y104.893 E11.70356
G1 X89.758 Y104.021 E11.7342
G1 X90.251 Y102.94 E11.77371
G1 X90.323 Y102.803 E11.77886
G1 X90.59 Y102.324 E11.7971
G1 X90.771 Y102.019 E11.8089
G1 X91.275 Y101.249 E11.83951
G1 X91.844 Y100.525 E11.87013
G1 X91.927 Y100.437 E11.87416
G0 F810 X92.473 Y99.853
G0 F6000 X92.79 Y100.103
G1 F900 X93.466 Y99.504 E11.9042
G1 X94.244 Y98.932 E11.93631
G1 X94.378 Y98.843 E11.94167
G1 X94.806 Y98.574 E11.95848
G1 X95.08 Y98.411 E11.96908
G1 X95.876 Y97.984 E11.99913
G1 X96.315 Y97.785 E12.01516
G1 X96.492 Y97.71 E12.02155
G1 X97.641 Y97.303 E12.06209
G1 X97.911 Y97.225 E12.07144
G1 X98.789 Y97.013 E12.10148
G1 X99.927 Y96.857 E12.13969
G1 X100.214 Y96.834 E12.14926
G1 X100.871 Y96.802 E12.17114
G1 X101.802 Y96.789 E12.20211
G1 X133.284 Y96.789 E13.2492
G1 X134.049 Y96.799 E13.27465
G1 X135.015 Y96.859 E13.30684
G1 X135.488 Y96.911 E13.32267
G1 X136.38 Y97.049 E13.35269
G1 X137.257 Y97.266 E13.38274
G1 X137.901 Y97.479 E13.4053
G1 X138.175 Y97.58 E13.41501
G1 X139.129 Y97.989 E13.44954
G1 X139.268 Y98.057 E13.45468
G1 X140.159 Y98.549 E13.48853
G1 X140.464 Y98.738 E13.50047
G1 X141.21 Y99.247 E13.53051
G1 X141.907 Y99.82 E13.56052
G1 X142.552 Y100.453 E13.59057
G1 X143.138 Y101.14 E13.62061
G1 X143.716 Y101.963 E13.65406
G1 X143.817 Y102.123 E13.66035
G1 X144.056 Y102.521 E13.67579
G1 X144.22 Y102.809 E13.68681
G1 X144.631 Y103.612 E13.71682
G1 X145.014 Y104.576 E13.75132
G1 X145.123 Y104.897 E13.76259
G1 X145.376 Y105.765 E13.79266
G1 X145.596 Y106.997 E13.83429
G1 X145.632 Y107.306 E13.84464
G1 X145.695 Y108.13 E13.87212
G1 X145.704 Y108.388 E13.88071
G1 X145.71 Y108.649 E13.88939
G1 X145.712 Y108.959 E13.8997
G1 X145.71 Y125.908 E14.46343
G1 X145.7 Y126.642 E14.48784
G1 X145.65 Y127.526 E14.51729
G1 X145.624 Y127.784 E14.52592
G1 X145.493 Y128.677 E14.55594
G1 X145.373 Y129.224 E14.57456
G1 X145.321 Y129.433 E14.58173
G1 X145.065 Y130.299 E14.61176
G1 X144.874 Y130.807 E14.62981
G1 X144.779 Y131.041 E14.63821
G1 X144.402 Y131.862 E14.66826
G1 X144.178 Y132.275 E14.68389
G1 X143.998 Y132.584 E14.69578
G1 X143.826 Y132.868 E14.70682
G1 X143.324 Y133.619 E14.73687
G1 X142.758 Y134.323 E14.76691
G1 X142.132 Y134.974 E14.79695
G1 X141.451 Y135.566 E14.82696
G1 X140.767 Y136.065 E14.85512
G1 X140.535 Y136.22 E14.8644
G1 X139.52 Y136.817 E14.90357
G1 X139.278 Y136.941 E14.91261
G1 X138.457 Y137.317 E14.94265
G1 X137.704 Y137.588 E14.96927
G1 X137.467 Y137.663 E14.97753
G1 X137.08 Y137.778 E14.99096
G1 X136.202 Y137.989 E15.021
G1 X135.073 Y138.143 E15.05889
G1 X134.786 Y138.166 E15.06847
G1 X134.129 Y138.198 E15.09035
G1 X133.198 Y138.211 E15.12132
G1 X101.567 Y138.21 E16.17337
G1 X100.951 Y138.201 E16.19386
G1 X100 Y138.143 E16.22555
G1 X99.502 Y138.089 E16.24221
G1 X98.61 Y137.952 E16.27222
G1 X97.733 Y137.736 E16.30226
G1 X96.862 Y137.437 E16.33289
G1 X96.588 Y137.329 E16.34269
G1 X95.763 Y136.961 E16.37273
G1 X95.112 Y136.605 E16.39741
G1 X94.638 Y136.321 E16.41579
G1 X94.51 Y136.241 E16.42081
G1 X93.766 Y135.729 E16.45085
G1 X93.07 Y135.153 E16.4809
G1 X92.428 Y134.517 E16.51096
G1 X91.845 Y133.828 E16.54098
G1 X91.196 Y132.883 E16.5791
G1 X90.912 Y132.415 E16.59731
G1 X90.478 Y131.623 E16.62735
G1 X90.116 Y130.795 E16.65741
G1 X89.955 Y130.349 E16.67318
G1 X89.877 Y130.115 E16.68138
G1 X89.724 Y129.611 E16.6989
G1 X89.706 Y129.546 E16.70114
G1 X89.504 Y128.666 E16.73117
G1 X89.408 Y128.034 E16.75243
G1 X89.37 Y127.716 E16.76309
G1 X89.304 Y126.841 E16.79227
G1 X89.292 Y126.398 E16.80701
G1 X89.288 Y126 E16.82025
G1 X89.29 Y109.01 E17.38534
G1 X89.3 Y108.34 E17.40763
G1 X89.343 Y107.541 E17.43424
G1 X89.365 Y107.306 E17.44209
G1 X89.489 Y106.412 E17.47211
G1 X89.732 Y105.391 E17.50702
G1 X89.845 Y105.005 E17.52039
G1 X90.137 Y104.151 E17.55041
G1 X90.605 Y103.126 E17.58789
G1 X90.677 Y102.989 E17.59304
G1 X90.934 Y102.528 E17.61059
G1 X91.115 Y102.223 E17.62239
G1 X91.61 Y101.468 E17.65241
G1 X92.17 Y100.759 E17.68246
G1 X92.241 Y100.684 E17.6859
G0 F810 X92.79 Y100.103
G1 F4200 E10.6859
;MESH:MitsubishiCase.stl
G0 F6000 X100.485 Y106.398
G0 X101.054 Y108.296
G0 X133.041 Y109.459
G0 X133.223 Y125.723
;TYPE:WALL-INNER
G1 F4200 E17.6859
G1 F900 X101.777 Y125.723 E18.7318
G1 X101.777 Y109.277 E19.27879
G1 X133.223 Y109.277 E20.32469
G1 X133.223 Y124.923 E20.84508
G0 F810 X133.223 Y125.723
G0 F6000 X133.623 Y126.123
G1 F900 X101.377 Y126.123 E21.91759
G1 X101.377 Y108.877 E22.49119
G1 X133.623 Y108.877 E23.5637
G1 X133.623 Y125.323 E24.11069
G0 F810 X133.623 Y126.123
G0 F6000 X133.916 Y126.523
G1 F900 X101.082 Y126.523 E25.20276
G1 X101.001 Y126.485 E25.20573
G1 X100.977 Y126.413 E25.20826
G1 X100.977 Y108.587 E25.80115
G1 X101.016 Y108.499 E25.80435
G1 X101.084 Y108.477 E25.80673
G1 X133.918 Y108.477 E26.89879
G1 X133.999 Y108.515 E26.90177
G1 X134.023 Y108.587 E26.90429
G1 X134.023 Y125.78 E27.47614
G0 F810 X134.023 Y126.413
G0 X133.984 Y126.501
G0 X133.916 Y126.523
G0 F6000 X133.98 Y126.923
;TYPE:WALL-OUTER
G1 F900 X101.019 Y126.923 E28.57242
G1 X100.807 Y126.855 E28.57983
G1 X100.653 Y126.704 E28.587
G1 X100.577 Y126.478 E28.59493
G1 X100.577 Y108.521 E29.19218
G1 X100.652 Y108.295 E29.2001
G1 X100.804 Y108.147 E29.20716
G1 X101.02 Y108.077 E29.21471
G1 X133.981 Y108.077 E30.311
G1 X134.193 Y108.145 E30.3184
G1 X134.347 Y108.296 E30.32558
G1 X134.423 Y108.522 E30.33351
G1 X134.423 Y126.356 E30.92667
G0 F810 X134.423 Y126.479
G0 X134.348 Y126.705
G0 X134.196 Y126.853
G0 X133.98 Y126.923
G0 F6000 X133.912 Y126.489
G0 X133.113 Y125.333
G0 X132.833 Y125.333
;TYPE:SKIN
G1 F900 X102.167 Y125.333 E31.94662
G1 X102.167 Y109.667 E32.46768
G1 X132.833 Y109.667 E33.48763
G1 X132.833 Y124.533 E33.98208
G0 F810 X132.833 Y125.333
G0 F6000 X133.113 Y125.333
G0 X133.113 Y110.044
G0 X132.672 Y110.044
G1 F900 X132.454 Y109.827 E33.99231
G0 F6000 X131.888 Y109.827
G1 F900 X132.672 Y110.61 E34.02916
G0 F6000 X132.672 Y111.176
G1 F900 X131.323 Y109.827 E34.09262
G0 F6000 X130.757 Y109.827
G1 F900 X132.672 Y111.741 E34.18267
G0 F6000 X132.672 Y112.307
G1 F900 X130.191 Y109.827 E34.29934
G0 F6000 X129.626 Y109.827
G1 F900 X132.672 Y112.873 E34.44262
G0 F6000 X132.672 Y113.439
G1 F900 X129.06 Y109.827 E34.61251
G0 F6000 X128.494 Y109.827
G1 F900 X132.672 Y114.004 E34.80901
G0 F6000 X132.672 Y114.57
G1 F900 X127.929 Y109.827 E35.03211
G0 F6000 X127.363 Y109.827
G1 F900 X132.672 Y115.136 E35.28183
G0 F6000 X132.672 Y115.701
G1 F900 X126.797 Y109.827 E35.55815
G0 F6000 X126.231 Y109.827
G1 F900 X132.672 Y116.267 E35.86109
G0 F6000 X132.672 Y116.833
G1 F900 X125.666 Y109.827 E36.19063
G0 F6000 X125.1 Y109.827
G1 F900 X132.672 Y117.398 E36.54677
G0 F6000 X132.672 Y117.964
G1 F900 X124.534 Y109.827 E36.92953
G0 F6000 X123.969 Y109.827
G1 F900 X132.672 Y118.53 E37.33889
G0 F6000 X132.672 Y119.095
G1 F900 X123.403 Y109.827 E37.77485
G0 F6000 X122.837 Y109.827
G1 F900 X132.672 Y119.661 E38.23744
G0 F6000 X132.672 Y120.227
G1 F900 X122.272 Y109.827 E38.72662
G0 F6000 X121.706 Y109.827
G1 F900 X132.672 Y120.792 E39.24241
G0 F6000 X132.672 Y121.358
G1 F900 X121.14 Y109.827 E39.78481
G0 F6000 X120.575 Y109.827
G1 F900 X132.672 Y121.924 E40.35382
G0 F6000 X132.672 Y122.489
G1 F900 X120.009 Y109.827 E40.94942
G0 F6000 X119.443 Y109.827
G1 F900 X132.672 Y123.055 E41.57165
G0 F6000 X132.672 Y123.621
G1 F900 X118.878 Y109.827 E42.22048
G0 F6000 X118.312 Y109.827
G1 F900 X132.672 Y124.187 E42.89593
G0 F6000 X132.672 Y124.752
G1 F900 X117.746 Y109.827 E43.59798
G0 F6000 X117.181 Y109.827
G1 F900 X132.525 Y125.172 E44.31974
G0 F6000 X131.96 Y125.172
G1 F900 X116.615 Y109.827 E45.04152
G0 F6000 X116.049 Y109.827
G1 F900 X131.394 Y125.172 E45.7633
G0 F6000 X130.828 Y125.172
G1 F900 X115.483 Y109.827 E46.48508
G0 F6000 X114.918 Y109.827
G1 F900 X130.263 Y125.172 E47.20687
G0 F6000 X129.697 Y125.172
G1 F900 X114.352 Y109.827 E47.92865
G0 F6000 X113.786 Y109.827
G1 F900 X129.131 Y125.172 E48.65043
G0 F6000 X128.566 Y125.172
G1 F900 X113.221 Y109.827 E49.37221
G0 F6000 X112.655 Y109.827
