;FLAVOR:Marlin
;TIME:19274
;Filament used: 11.1395m
;Layer height: 0.2
;MINX:75.836
;MINY:91.836
;MINZ:0.24
;MAXX:159.164
;MAXY:142.977
;MAXZ:79.09
;Generated with Cura_SteamEngine 4.13.1
M82 ;absolute extrusion mode
; BIQU B1 Start G-code
M117 Getting the bed up to temp!
M140 S85      ; Set Heat Bed temperature
M190 S85      ; Wait for Heat Bed temperature
M117 Getting the extruder up to temp!
M104 S240    ; Set Extruder temperature
G28   ; HOME
M117 Auto bed levelling
G29
G92 E0                           ; Reset Extruder
M117 Homing axes
G28                              ; Home all axes
M109 S240    ; Wait for Extruder temperature
G1 Z2.0 F3000                    ; Move Z Axis up little to prevent scratching of Heat Bed
G1 X4.1 Y20 Z0.3 F5000.0         ; Move to start position
M117 Purging
G1 X0.1 Y200.0 Z0.3 F1500.0 E15  ; Draw the first line
G1 X0.4 Y200.0 Z0.3 F5000.0      ; Move to side a little
G1 X0.4 Y20 Z0.3 F1500.0 E30     ; Draw the second line
G92 E0                           ; Reset Extruder
M117 Lets make
G1 Z2.0 F3000                    ; Move Z Axis up little to prevent scratching of Heat Bed
G1 X5 Y20 Z0.3 F5000.0           ; Move over to prevent blob squish
G92 E0
G92 E0
G1 F4200 E-7
;LAYER_COUNT:390
;LAYER:-6
M107
G0 F9000 X82.147 Y96.393 Z0.24
;TYPE:SUPPORT-INTERFACE
G1 F4200 E0
G1 F900 X82.838 Y95.839 E0.0707
G1 X82.977 Y95.735 E0.08455
G1 X83.692 Y95.243 E0.15384
G1 X83.876 Y95.126 E0.17124
G1 X84.632 Y94.683 E0.24119
G1 X84.774 Y94.606 E0.25408
G1 X85.606 Y94.197 E0.32809
G1 X85.719 Y94.147 E0.33795
G1 X86.569 Y93.804 E0.41112
G1 X86.742 Y93.742 E0.42579
G1 X87.58 Y93.473 E0.49604
G1 X87.744 Y93.427 E0.50964
G1 X88.616 Y93.215 E0.58127
G1 X88.778 Y93.182 E0.59447
G1 X89.671 Y93.034 E0.66672
G1 X89.848 Y93.011 E0.68097
G1 X90.742 Y92.928 E0.75264
G1 X90.884 Y92.921 E0.76399
G1 X91.628 Y92.9 E0.8234
G1 X104.739 Y92.903 E1.86998
G1 X104.898 Y92.909 E1.88268
G1 X105.241 Y92.911 E1.91006
G1 X105.636 Y92.9 E1.9416
G1 X143.386 Y92.901 E4.95497
G1 X144.387 Y92.937 E5.03493
G1 X144.51 Y92.946 E5.04477
G1 X145.427 Y93.048 E5.11842
G1 X145.602 Y93.073 E5.13253
G1 X146.491 Y93.237 E5.2047
G1 X146.614 Y93.265 E5.21476
G1 X147.508 Y93.499 E5.28853
G1 X147.671 Y93.548 E5.30212
G1 X148.513 Y93.834 E5.3731
G1 X148.679 Y93.898 E5.3873
G1 X149.482 Y94.239 E5.45694
G1 X149.671 Y94.327 E5.47358
G1 X150.465 Y94.735 E5.54484
G1 X150.582 Y94.802 E5.55561
G1 X151.361 Y95.276 E5.6284
G1 X151.512 Y95.376 E5.64285
G1 X152.226 Y95.887 E5.71294
G1 X152.374 Y96 E5.7278
G1 X153.066 Y96.577 E5.79972
G1 X153.174 Y96.673 E5.81126
G1 X153.686 Y97.155 E5.86739
G1 X153.806 Y97.275 E5.88094
G1 X154.488 Y98.008 E5.96086
G1 X154.607 Y98.147 E5.97546
G1 X155.161 Y98.838 E6.04616
G1 X155.265 Y98.977 E6.06002
G1 X155.757 Y99.692 E6.1293
G1 X155.874 Y99.876 E6.14671
G1 X156.314 Y100.625 E6.21605
G1 X156.387 Y100.759 E6.22823
G1 X156.792 Y101.582 E6.30145
G1 X156.853 Y101.719 E6.31342
G1 X157.195 Y102.564 E6.38618
G1 X157.254 Y102.73 E6.40025
G1 X157.525 Y103.572 E6.47086
G1 X157.572 Y103.738 E6.48463
G1 X157.783 Y104.607 E6.55601
G1 X157.817 Y104.77 E6.5693
G1 X157.965 Y105.662 E6.64148
G1 X157.989 Y105.848 E6.65645
G1 X158.07 Y106.732 E6.72731
G1 X158.079 Y106.884 E6.73946
G1 X158.1 Y107.617 E6.798
G1 X158.1 Y127.369 E8.37469
G1 X158.064 Y128.375 E8.45504
G1 X158.054 Y128.51 E8.46585
G1 X157.952 Y129.427 E8.5395
G1 X157.927 Y129.602 E8.55361
G1 X157.765 Y130.48 E8.62488
G1 X157.735 Y130.614 E8.63584
G1 X157.504 Y131.499 E8.70885
G1 X157.452 Y131.671 E8.7232
G1 X157.166 Y132.513 E8.79418
G1 X157.102 Y132.679 E8.80838
G1 X156.761 Y133.482 E8.87802
G1 X156.68 Y133.657 E8.89341
G1 X156.276 Y134.443 E8.96396
G1 X156.198 Y134.582 E8.97668
G1 X155.724 Y135.361 E9.04947
G1 X155.624 Y135.512 E9.06393
G1 X155.113 Y136.226 E9.13401
G1 X155 Y136.374 E9.14888
G1 X154.423 Y137.066 E9.2208
G1 X154.327 Y137.174 E9.23233
G1 X153.845 Y137.686 E9.28847
G1 X153.688 Y137.842 E9.30613
G1 X153.003 Y138.478 E9.38075
G1 X152.855 Y138.605 E9.39631
G1 X152.162 Y139.161 E9.46724
G1 X152.023 Y139.265 E9.48109
G1 X151.308 Y139.757 E9.55038
G1 X151.124 Y139.874 E9.56778
G1 X150.368 Y140.317 E9.63773
G1 X150.226 Y140.394 E9.65062
G1 X149.398 Y140.801 E9.72427
G1 X149.281 Y140.853 E9.73449
G1 X148.426 Y141.198 E9.80808
G1 X148.263 Y141.256 E9.82189
G1 X147.42 Y141.527 E9.89258
G1 X147.256 Y141.573 E9.90617
G1 X146.384 Y141.785 E9.97781
G1 X146.222 Y141.818 E9.99101
G1 X145.329 Y141.966 E10.06326
G1 X145.152 Y141.989 E10.07751
G1 X144.258 Y142.072 E10.14918
G1 X144.116 Y142.079 E10.16053
G1 X143.375 Y142.1 E10.2197
G1 X105.585 Y142.099 E13.23626
G1 X105.437 Y142.094 E13.24808
G1 X105.173 Y142.092 E13.26916
G1 X104.642 Y142.1 E13.31155
G1 X91.614 Y142.099 E14.3515
G1 X90.613 Y142.063 E14.43146
G1 X90.49 Y142.054 E14.4413
G1 X89.573 Y141.952 E14.51495
G1 X89.398 Y141.927 E14.52906
G1 X88.509 Y141.763 E14.60122
G1 X88.386 Y141.735 E14.61129
G1 X87.492 Y141.501 E14.68506
G1 X87.329 Y141.452 E14.69865
G1 X86.487 Y141.166 E14.76963
G1 X86.321 Y141.102 E14.78383
G1 X85.518 Y140.761 E14.85347
G1 X85.329 Y140.673 E14.87011
G1 X84.535 Y140.265 E14.94137
G1 X84.418 Y140.198 E14.95213
G1 X83.639 Y139.724 E15.02492
G1 X83.488 Y139.624 E15.03938
G1 X82.774 Y139.113 E15.10947
G1 X82.626 Y139 E15.12433
G1 X81.934 Y138.423 E15.19625
G1 X81.826 Y138.327 E15.20779
G1 X81.314 Y137.845 E15.26392
G1 X81.154 Y137.684 E15.28204
G1 X80.51 Y136.99 E15.35761
G1 X80.393 Y136.853 E15.37199
G1 X79.843 Y136.167 E15.44218
G1 X79.727 Y136.011 E15.4577
G1 X79.243 Y135.308 E15.52583
G1 X79.126 Y135.124 E15.54323
G1 X78.683 Y134.368 E15.61318
G1 X78.606 Y134.226 E15.62607
G1 X78.197 Y133.394 E15.70008
G1 X78.147 Y133.281 E15.70994
G1 X77.798 Y132.417 E15.78432
G1 X77.742 Y132.259 E15.7977
G1 X77.47 Y131.411 E15.86879
G1 X77.428 Y131.261 E15.88123
G1 X77.212 Y130.373 E15.95418
G1 X77.183 Y130.23 E15.96583
G1 X77.033 Y129.324 E16.03913
G1 X77.011 Y129.152 E16.05297
G1 X76.928 Y128.253 E16.12504
G1 X76.921 Y128.116 E16.13599
G1 X76.9 Y127.383 E16.19452
G1 X76.9 Y107.631 E17.77121
G1 X76.936 Y106.625 E17.85157
G1 X76.946 Y106.49 E17.86238
G1 X77.047 Y105.575 E17.93586
G1 X77.073 Y105.4 E17.94998
G1 X77.235 Y104.52 E18.02141
G1 X77.265 Y104.386 E18.03237
G1 X77.496 Y103.5 E18.10546
G1 X77.548 Y103.329 E18.11972
G1 X77.834 Y102.487 E18.19071
G1 X77.898 Y102.321 E18.20491
G1 X78.239 Y101.518 E18.27455
G1 X78.32 Y101.343 E18.28994
G1 X78.735 Y100.535 E18.36245
G1 X78.802 Y100.418 E18.37321
G1 X79.276 Y99.639 E18.446
G1 X79.376 Y99.488 E18.46046
G1 X79.892 Y98.767 E18.53123
G1 X80 Y98.626 E18.54541
G1 X80.577 Y97.934 E18.61733
G1 X80.673 Y97.826 E18.62887
G1 X81.155 Y97.314 E18.685
G1 X81.312 Y97.158 E18.70266
G1 X81.898 Y96.614 E18.76649
G0 F810 X82.008 Y96.512
G0 X82.147 Y96.393
G0 F9000 X81.6 Y96.89
G1 F900 X81.6 Y138.114 E22.05717
G0 F9000 X83.2 Y139.417
G1 F900 X83.2 Y95.581 E25.55635
G0 F9000 X84.8 Y94.593
G1 F900 X84.8 Y140.401 E29.21294
G0 F9000 X86.4 Y141.132
G1 F900 X86.4 Y93.872 E32.98544
G0 F9000 X88 Y93.364
G1 F900 X88 Y141.633 E36.83848
G0 F9000 X89.6 Y141.955
G1 F900 X89.6 Y93.045 E40.74269
G0 F9000 X91.2 Y92.912
G1 F900 X91.2 Y142.084 E44.66781
G0 F9000 X92.8 Y142.099
G1 F900 X92.8 Y92.901 E48.595
G0 F9000 X94.4 Y92.901
G1 F900 X94.4 Y142.099 E52.5222
G0 F9000 X96 Y142.099
G1 F900 X96 Y92.902 E56.44932
G0 F9000 X97.6 Y92.902
G1 F900 X97.6 Y142.099 E60.37644
G0 F9000 X99.2 Y142.099
G1 F900 X99.2 Y92.902 E64.30355
G0 F9000 X100.8 Y92.903
G1 F900 X100.8 Y142.099 E68.23059
G0 F9000 X102.4 Y142.099
G1 F900 X102.4 Y92.903 E72.15763
G0 F9000 X104 Y92.903
G1 F900 X104 Y142.099 E76.08467
G0 F9000 X105.6 Y142.099
G1 F900 X105.6 Y92.901 E80.01186
G0 F9000 X107.2 Y92.901
G1 F900 X107.2 Y142.099 E83.93906
G0 F9000 X108.8 Y142.099
G1 F900 X108.8 Y92.901 E87.86626
G0 F9000 X110.4 Y92.901
G1 F900 X110.4 Y142.099 E91.79345
G0 F9000 X112 Y142.099
G1 F900 X112 Y92.901 E95.72065
G0 F9000 X113.6 Y92.901
G1 F900 X113.6 Y142.099 E99.64785
G0 F9000 X115.2 Y142.099
G1 F900 X115.2 Y92.901 E103.57504
G0 F9000 X116.8 Y92.901
G1 F900 X116.8 Y142.099 E107.50224
G0 F9000 X118.4 Y142.099
G1 F900 X118.4 Y92.901 E111.42944
G0 F9000 X120 Y92.901
G1 F900 X120 Y142.099 E115.35664
G0 F9000 X121.6 Y142.099
G1 F900 X121.6 Y92.901 E119.28383
G0 F9000 X123.2 Y92.901
G1 F900 X123.2 Y142.099 E123.21103
G0 F9000 X124.8 Y142.099
G1 F900 X124.8 Y92.901 E127.13823
G0 F9000 X126.4 Y92.901
G1 F900 X126.4 Y142.099 E131.06542
G0 F9000 X128 Y142.099
G1 F900 X128 Y92.901 E134.99262
G0 F9000 X129.6 Y92.901
G1 F900 X129.6 Y142.099 E138.91982
G0 F9000 X131.2 Y142.099
G1 F900 X131.2 Y92.901 E142.84702
G0 F9000 X132.8 Y92.901
G1 F900 X132.8 Y142.099 E146.77421
G0 F9000 X134.4 Y142.099
G1 F900 X134.4 Y92.901 E150.70141
G0 F9000 X136 Y92.901
G1 F900 X136 Y142.099 E154.62861
G0 F9000 X137.6 Y142.099
G1 F900 X137.6 Y92.901 E158.5558
G0 F9000 X139.2 Y92.901
G1 F900 X139.2 Y142.099 E162.483
G0 F9000 X140.8 Y142.099
G1 F900 X140.8 Y92.901 E166.4102
G0 F9000 X142.4 Y92.901
G1 F900 X142.4 Y142.099 E170.3374
G0 F9000 X144 Y142.083
G1 F900 X144 Y92.924 E174.26148
G0 F9000 X145.6 Y93.073
G1 F900 X145.6 Y141.922 E178.16082
G0 F9000 X147.2 Y141.587
G1 F900 X147.2 Y93.419 E182.0058
G0 F9000 X148.8 Y93.95
G1 F900 X148.8 Y141.048 E185.76536
G0 F9000 X150.4 Y140.299
G1 F900 X150.4 Y94.702 E189.40511
G0 F9000 X152 Y95.726
G1 F900 X152 Y139.281 E192.88186
G0 F9000 X153.6 Y137.924
G1 F900 X153.6 Y97.075 E196.1426
G0 F9000 X155.2 Y98.891
G1 F900 X155.2 Y136.105 E199.11319
G0 F9000 X156.8 Y133.391
G1 F900 X156.8 Y101.6 E201.65088
G1 F4200 E194.65088
G0 F9000 X157.754 Y101.13
G0 X156.779 Y99.315
G0 X155.998 Y98.181
G0 X154.566 Y96.53
G0 X153.031 Y95.162
G0 X151.926 Y94.374
G0 X150.132 Y93.368
G0 X148.868 Y92.831
G0 X146.871 Y92.232
G0 X145.555 Y91.991
G0 X143.37 Y91.836
G0 X90.661 Y91.868
G0 X88.584 Y92.134
G0 X87.275 Y92.453
G0 X85.31 Y93.165
G0 X84.115 Y93.753
G0 X82.363 Y94.866
G0 X81.306 Y95.712
G0 X80.066 Y96.944
G0 X79.182 Y97.946
G0 X80 Y98.626
G1 F4200 E201.65088
G1 F900 X80 Y136.362 E204.66313
G0 F9000 X78.4 Y133.806
M104 S240
G1 F900 X78.4 Y101.187 E207.26692
G1 F4200 E200.26692
G0 F300 X78.4 Y101.187 Z0.54
G0 F9000 X77.269 Y101.079
G0 X76.536 Y102.996
G0 X76.194 Y104.301
G0 X75.887 Y106.386
G0 X75.836 Y107.606
G0 X75.868 Y128.339
G0 X76.134 Y130.415
G0 X76.453 Y131.725
G0 X77.165 Y133.69
G0 X78.163 Y133.317
;TIME_ELAPSED:185.509213
;LAYER:-5
;TYPE:SUPPORT
G1 F4200 E207.26692
G1 F900 X85.67 Y140.824 E208.32624
G1 X86.32 Y141.101 E208.39674
G1 X86.486 Y141.164 E208.41446
G1 X87.329 Y141.451 E208.50331
G1 X87.491 Y141.5 E208.5202
G1 X87.855 Y141.595 E208.55774
G1 X77.398 Y131.138 E210.03333
G1 X77.211 Y130.372 E210.11201
G1 X77.183 Y130.229 E210.12655
G1 X77.039 Y129.365 E210.21395
G1 X89.631 Y141.957 E211.99082
G1 X90.489 Y142.053 E212.07696
G1 X90.612 Y142.061 E212.08926
G1 X91.17 Y142.081 E212.14497
G1 X76.912 Y127.824 E214.15686
G1 X76.899 Y127.381 E214.20108
G1 X76.899 Y126.397 E214.29927
G1 X92.601 Y142.098 E216.51492
G1 X94.015 Y142.098 E216.65601
G1 X76.899 Y124.983 E219.07119
G1 X76.899 Y123.569 E219.21228
G1 X95.429 Y142.098 E221.82699
G1 X96.843 Y142.098 E221.96808
G1 X76.899 Y122.154 E224.7824
G1 X76.899 Y120.74 E224.92348
G1 X98.258 Y142.098 E227.9374
G1 X99.672 Y142.098 E228.07849
G1 X76.899 Y119.326 E231.29194
G1 X76.899 Y117.912 E231.43302
G1 X101.086 Y142.098 E234.846
G1 X102.5 Y142.098 E234.98709
G1 X76.899 Y116.497 E238.59967
G1 X76.899 Y115.083 E238.74076
G1 X103.914 Y142.098 E242.55287
G1 X104.641 Y142.098 E242.62541
G1 X105.172 Y142.09 E242.6784
G1 X105.322 Y142.091 E242.69336
G1 X76.899 Y113.669 E246.70408
G1 X76.899 Y112.255 E246.84517
G1 X106.743 Y142.098 E251.05641
G1 X108.157 Y142.098 E251.1975
G1 X76.899 Y110.841 E255.60828
G1 X76.899 Y109.426 E255.74946
G1 X109.571 Y142.098 E260.35984
G1 X110.986 Y142.098 E260.50103
G1 X76.899 Y108.012 E265.311
G1 X76.899 Y107.63 E265.34912
G1 X76.935 Y106.633 E265.44866
G1 X112.4 Y142.098 E270.45316
G1 X113.814 Y142.098 E270.59425
G1 X77.078 Y105.363 E275.77802
G1 X77.235 Y104.519 E275.86368
G1 X77.264 Y104.385 E275.87736
G1 X77.316 Y104.186 E275.89788
G1 X115.228 Y142.098 E281.24768
G1 X116.642 Y142.098 E281.38877
G1 X77.63 Y103.086 E286.89378
G1 X77.834 Y102.486 E286.95701
G1 X77.898 Y102.32 E286.97477
G1 X78.011 Y102.053 E287.0037
G1 X118.057 Y142.098 E292.65455
G1 X119.471 Y142.098 E292.79564
G1 X78.453 Y101.08 E298.58372
G1 X78.735 Y100.534 E298.64504
G1 X78.802 Y100.416 E298.65858
G1 X78.954 Y100.167 E298.68769
G1 X120.885 Y142.098 E304.6046
G1 X122.299 Y142.098 E304.74569
G1 X79.505 Y99.304 E310.78439
G1 X79.891 Y98.765 E310.85054
G1 X79.999 Y98.625 E310.86818
G1 X80.108 Y98.493 E310.88526
G1 X123.713 Y142.098 E317.0384
G1 X125.128 Y142.099 E317.17959
G1 X80.76 Y97.731 E323.44039
G1 X81.154 Y97.313 E323.49771
G1 X81.312 Y97.157 E323.51986
G1 X81.462 Y97.018 E323.54027
G1 X126.543 Y142.099 E329.90168
G1 X127.957 Y142.099 E330.04277
G1 X82.204 Y96.346 E336.49902
G1 X82.837 Y95.838 E336.58
G1 X82.976 Y95.734 E336.59732
G1 X82.994 Y95.722 E336.59948
G1 X129.371 Y142.099 E343.14378
G1 X130.785 Y142.099 E343.28487
G1 X83.836 Y95.15 E349.90988
G1 X83.876 Y95.124 E349.91464
G1 X84.631 Y94.682 E350.00193
G1 X84.729 Y94.629 E350.01305
G1 X132.199 Y142.099 E356.71158
G1 X133.614 Y142.099 E356.85277
G1 X85.678 Y94.163 E363.61706
G1 X85.719 Y94.146 E363.62149
G1 X86.568 Y93.802 E363.71289
G1 X86.689 Y93.76 E363.72567
G1 X135.028 Y142.099 E370.54682
G1 X136.442 Y142.099 E370.68791
G1 X87.764 Y93.421 E377.55691
G1 X88.616 Y93.213 E377.64441
G1 X88.777 Y93.181 E377.66079
G1 X88.916 Y93.159 E377.67484
G1 X137.856 Y142.099 E384.5808
G1 X139.271 Y142.099 E384.72199
G1 X90.153 Y92.982 E391.653
G1 X90.742 Y92.927 E391.71202
G1 X90.883 Y92.92 E391.72611
G1 X91.489 Y92.903 E391.7866
G1 X140.685 Y142.099 E398.72869
G1 X142.099 Y142.099 E398.86978
G1 X92.9 Y92.9 E405.81229
G1 X94.314 Y92.9 E405.95338
G1 X143.51 Y142.095 E412.89539
G1 X144.115 Y142.078 E412.95578
G1 X144.256 Y142.071 E412.96987
G1 X144.845 Y142.016 E413.0289
G1 X95.729 Y92.901 E419.95963
G1 X97.143 Y92.901 E420.10071
G1 X146.083 Y141.84 E427.00661
G1 X146.221 Y141.818 E427.02055
G1 X146.383 Y141.785 E427.03705
G1 X147.234 Y141.577 E427.12446
G1 X98.558 Y92.901 E433.99317
G1 X99.972 Y92.901 E434.13426
G1 X148.309 Y141.238 E440.95513
G1 X148.425 Y141.198 E440.96737
G1 X149.28 Y140.852 E441.05941
G1 X149.319 Y140.834 E441.06369
G1 X101.387 Y92.901 E447.82749
G1 X102.802 Y92.902 E447.96868
G1 X150.269 Y140.369 E454.66678
G1 X150.367 Y140.316 E454.6779
G1 X151.122 Y139.874 E454.76519
G1 X151.162 Y139.848 E454.76995
G1 X104.216 Y92.902 E461.39454
G1 X104.738 Y92.902 E461.44663
G1 X104.897 Y92.908 E461.4625
G1 X105.24 Y92.911 E461.49673
G1 X105.629 Y92.901 E461.53556
G1 X152.004 Y139.276 E468.07957
G1 X152.022 Y139.264 E468.08173
G1 X152.161 Y139.16 E468.09905
G1 X152.794 Y138.652 E468.18004
G1 X107.043 Y92.901 E474.636
G1 X108.457 Y92.901 E474.77709
G1 X153.536 Y137.98 E481.13822
G1 X153.686 Y137.841 E481.15863
G1 X153.844 Y137.685 E481.18078
G1 X154.238 Y137.267 E481.2381
G1 X109.871 Y92.901 E487.49869
G1 X111.285 Y92.901 E487.63978
G1 X154.89 Y136.505 E493.79284
G1 X154.999 Y136.374 E493.80985
G1 X155.112 Y136.225 E493.82851
G1 X155.493 Y135.694 E493.89372
G1 X112.7 Y92.901 E499.93227
G1 X114.114 Y92.901 E500.07336
G1 X156.045 Y134.832 E505.99028
G1 X156.197 Y134.582 E506.01947
G1 X156.275 Y134.442 E506.03546
G1 X156.545 Y133.918 E506.09428
G1 X115.528 Y92.901 E511.88222
G1 X116.942 Y92.901 E512.02331
G1 X156.988 Y132.946 E517.67417
G1 X157.101 Y132.679 E517.7031
G1 X157.165 Y132.512 E517.72094
G1 X157.368 Y131.912 E517.78414
G1 X118.356 Y92.901 E523.28909
G1 X119.771 Y92.901 E523.43028
G1 X157.682 Y130.812 E528.77993
G1 X157.734 Y130.613 E528.80045
G1 X157.764 Y130.479 E528.81415
G1 X157.92 Y129.636 E528.8997
G1 X121.185 Y92.901 E534.0834
G1 X122.599 Y92.901 E534.22449
G1 X158.063 Y128.365 E539.22884
G1 X158.099 Y127.369 E539.32829
G1 X158.099 Y126.987 E539.36641
G1 X124.013 Y92.901 E544.17631
G1 X125.428 Y92.901 E544.3175
G1 X158.099 Y125.572 E548.92773
G1 X158.099 Y124.158 E549.06882
G1 X126.842 Y92.901 E553.47952
